public/assets/images/str/au-02.svg

<svg fill="none" height="50" viewBox="0 0 44 50" width="44" xmlns="http://www.w3.org/2000/svg" xmlns:xlink="http://www.w3.org/1999/xlink"><clipPath id="a"><path d="m0 0h44v50h-44z"/></clipPath><g clip-path="url(#a)" fill="#f00"><path d="m43.9908 19.4359c-.1972-.1728-1.9239.4176-2.2006.6169-.3636.2629-.6434.8459-1.112 1.0377-.2639.0795-.2257-.2862-.4589-.3106-.2926-.0296-.6678.4919-1.0707.3223.3371-.5851 1.2297-1.4459.5152-2.0628-.389.4919-.7293 1.006-1.2381 1.3812-.565.4176-1.3038.7208-1.89 1.1257-.7155.4929-2.3129 2.137-3.0051 2.2387-.3286.0477-.5109-.0625-.813-.1431-.0297-.0371.6095-.5681.7091-.5989.1898-.0593.389-.0148.5798-.0561.6127-.1325 1.0272-.7855 1.4883-1.2106.3297-.3031 1.1363-.6953 1.1194-1.1872-.0106-.2999-.2735-.6476-.5968-.602-.7622.318-2.1275.1982-2.7995.5437-.3753.193-1.695 1.0844-2.0469 1.3674-.7409.5968-1.1543 1.6028-2.3458 1.5455.1389-.46.6254-1.5804.3254-1.9907l-.1918-.0975c-.37-.0063-.388 1.0759-1.1247 1.0197-.388-.0286.0615-.8808-.6848-.8342-.0721.0043-.8194.2004-.8596.2375-.1908.1674-.1877.6402-.3647.9084-.3403.5141-3.8616 2.3002-4.6121 2.6118-2.4285 1.0091-4.645 1.025-7.2134.8045-1.5264-.1314-2.173-.5713-2.103-2.1814.0731-1.6939 1.4628-3.515 2.3468-4.9566.618-1.0059 1.8413-2.544 2.261-3.534.053-.1251.1018-.2152.0742-.3625-1.4596 1.8232-2.8758 3.6909-4.0492 5.7155-.1463.018-.0689-.1654-.0424-.2406.7028-1.926 2.597-4.6492 3.9358-6.2264.4155-.4898 1.184-1.0166 1.4289-1.589.1251-.2915.1314-.5978.2322-.8787.3964-1.1088 1.8772-2.24085 2.5323-3.26269.2449-.3286-.1473-.4558-.4282-.2703-.6678.70066-1.3611 1.57198-2.0988 2.18889-1.2265 1.0229-2.2695 1.732-3.3762 2.9744-.7293.8183-1.979 2.8344-2.7931 3.3209-.0732.0435-.3689.2247-.4208.1728-.0679-.0657.195-.4145.2522-.5003 1.1438-1.7289 2.5632-2.8705 3.7938-4.3842.4452-.5469.5629-1.167.9572-1.662.2406-.3032 1.1745-1.08971 1.5126-1.34517.2757-.20776.7262-.33178.9117-.51834.1833-.18338.3392-.61585.5501-.87873.547-.68158 1.3801-1.24762 1.9865-1.90376.7939-.85753 1.5115-1.88891 2.3002-2.78036.6148-.69536 1.3939-1.3674 1.9875-2.061696.1781-.208819.6456-.661438.4367-.9168965-.2056-.1430995-1.0345.4515585-1.2306.5999575-.405.306339-.8025.785455-1.1947 1.107695-3.6888 3.02523-7.4264 5.9805-10.8767 9.2887-4.36411 4.1817-8.97092 10.0583-7.02474 16.5148l-.35828-.476c-.1325-.0169-.1272-.0053-.11978.1198.03816.6922.72928 2.1189 1.27201 2.579l-.19822-1.0314c1.9059 2.9012 4.48911 4.2029 7.87381 4.6704 1.7119.2363 3.5065.2777 5.1866-.106-.5364-.4071-1.3165-.0043-1.8678-.4346-.1568-.2396.3997-.3021.5587-.318.8522-.0848 1.5338.0339 2.3956-.3043.142-.0551 1.1586-.7462.7431-.1303-.2958.4388-1.077.5278-1.0357 1.0674 1.1809.035 2.3999-.5396 3.4673-1.0176 1.1448-.512 2.2292-1.1469 3.3232-1.7596.0985-.0318.1579.0201.1166.1176-.087.2014-1.1491.9487-1.4035 1.1374-1.6176 1.1936-3.3221 2.279-4.9386 3.4768-1.8423 1.3632-3.9623 3.4058-5.9901 4.3311-1.1989.5481-2.4953.9381-3.6496 1.59-.6583.3721-1.3049.8904-1.9674 1.2879-1.30064.7802-2.98181 1.6038-4.12345 2.5461-.16748.1389-.49926.5746-.63706.6382-.36041.1653-1.07909-.4474-1.18933.5512-.14735 1.3186.742 1.2274 1.64725 1.6907.07102.0371.13038-.0191.10388.1378-.0795.4632-2.05112 1.2709-1.75007 1.627 1.31547.2078 2.69348.1421 3.77045-.7155.21201-.1695.94341-1.0345 1.11408-1.0356.25016 0 .34344.6254.2385.8003-.1696.282-1.38014.1463-1.47024.6763-.05724.335.04664.513.40069.3996.62116-.1982.6307-1.2391 1.79884-.5374.56074.336.20988.3986.22154.8883.80352-.2979.48548-.6381.61272-1.2126.124-.564 1.0632-.6095 1.519-.8629.8395-.4674 1.9355-1.5815 2.8058-2.1963 2.1858-1.5444 4.6312-2.9521 6.7321-4.6205.4802-.3816.8512-.9339 1.3187-1.3017.8491-.6699 2.0087-.8809 2.5748-1.9514.4314-.1082.83 2.0033.9338 2.3192.37 1.1151 1.1618 1.5052 1.924 2.2843.3074.3138.496.7155.8702 1.0346 1.3335 1.1363 3.4239 1.0769 4.5305 2.616 1.148 1.1512 2.5568 1.1936 4.0832 1.395.2014-.4229.9964-.4113 1.1554-.76.1855-.4071-.5851-1.0484-.0859-1.5911.1346-.1473.3403-.2629.4643-.054.2841.477.3371 1.0536.812 1.4087.2894.2162 1.4511.6932 1.308.0456-.1229-.5586-1.2794-.8554-1.3409-1.0515-.0752-.6159.3901-.918.4685-1.4543l-1.7458.1579c-.1802-.1601.7643-.5724.8332-.7134.071-.1463.0636-.8035.035-.9879-.0891-.5692-1.1608-.6265-1.5826-.919.1102-.177.4293-.018.6349-.1177.389-.1908-.1187-1.5179-.3318-1.8126-.1632-.2268-.3339-.3784-.6455-.2936-.0817.0223-.0753.1601-.1336.1972-.2353.1526-.8533-.0817-1.1533-.1145-1.4119-.1548-1.0483-.1982-2.208-.7303-.3233-.1484-1.9207-.8215-2.1624-.8555-.0647-.0095-.1293-.0053-.1929-.0042l.0784 1.0324c-.2449.2481-1.0091-.6519-1.1522-.7133-.2449-.106-.1113.5724-.1982.6338-.4834-.0084-.7611-.4918-1.1512-.7123-.1717.0085-.2322.8798-.1813 1.0536.0827.2799 1.3749 1.0579 1.571 1.4469.0392.1866-.1612.1272-.2703.1103-.9668-.1527-1.5519-1.0865-2.2324-1.6579-.83-.6953-1.8593-1.1437-2.7009-1.8284-.1029-.6138.6413-.794 1.0335-1.113.2491-.2025.7801-.7304.8914-1.0145.1209-.3052.0891-.7356.2597-1.0101.1548-.2491.671-.4707.9138-.6742.3275-.2756 1.0324-1.0653 1.1681-1.4543.0307-.0869.0753-.2056-.0541-.2099-.1229 0-1.432 1.2381-1.6705 1.4257-1.1894.9317-2.56 2.0204-3.7758 2.8927-.2014.1453-.5427.4357-.7865.4039 2.0808-1.9313 4.4234-3.6284 6.3123-5.7547.4696-.5279.8671-1.2307 1.3876-1.7087.8788-.8056 2.0034-1.0123 2.8143-2.1084.1877-.2522.5004-1.0621.7145-1.1903.3911-.2364 1.0091.2692 1.7511-.2343.3731-.2523 1.1353-.8734.9795-1.3727-.1527-.4908-1.9102-.7642-2.3681-.5332.0551-.1123.1791-.2406.2777-.3158.5353-.4103 3.3454-1.2837 4.0503-1.3484.3573-.0339.7516.0393 1.1035-.0084.671-.0923 1.0293-.7145 1.5614-1.059.5862-.3784 1.6006-.6063 2.0183-1.1564.0604-.0795.1547-.1007.1187-.2385zm-34.62952 1.2158c-.15264.3848-.30529.7685-.42189 1.166-.1378.4674-.1007 1.078-.43672 1.4289-.2491-.9381.02544-1.7395.38266-2.5949.36465-.8756.92963-2.2069 1.83917-2.5652zm17.45522 3.5605c-.795.3371-1.5296.3254-2.2748.5841-.5491.1908-.9964.6646-1.59.7515.1113-.1675.3561-.2756.5321-.3805 1.2996-.7791 2.6659-1.6398 4.2316-1.6822.2448.2332-.7685.672-.8989.7271z"/><path d="m20.7925 16.3635c1.1014-.1018 2.8313.4611 3.6285 1.2476 1.1034 1.0875-.5502 3.1248-1.3473 3.9697-1.3494 1.4309-3.0083 2.6213-5.0414 1.7839-3.5341-1.4564-.23-6.7235 2.7602-7.0002z"/><path d="m1.83676 49.8392c-.31164-.6402.40386-1.0366.71127-1.5052-.42401.0117-.80031.1029-1.23386.0817-.962487-.0477-2.146519-.7208-.477001-.7993.385841-.018.703851.0827 1.032451.0859.87345.0063 1.86986-.2385 2.58219.353.0159.2183-1.57094 1.1341-1.85078 1.3239-.24911.1696-.40917.5024-.76427.46z"/><path d="m31.886 20.2315c.1272.0031.0858.1208.054.2098-.2862.8014-.8946.8035-1.3695 1.2529-.1972.1866-.53 1.0632-.9106.6806-.1855-.1866-.159-.7431.0064-.9498.0784-.0986 2.0935-1.1967 2.2186-1.1935z"/></g></svg>

<svg width="44" height="50" viewBox="0 0 44 50" fill="none" xmlns="http://www.w3.org/2000/svg">
<g clip-path="url(#clip0_2436_206830)">
<path d="M43.9908 19.4359C43.7936 19.2631 42.0669 19.8535 41.7902 20.0528C41.4266 20.3157 41.1468 20.8987 40.6782 21.0905C40.4143 21.17 40.4525 20.8043 40.2193 20.7799C39.9267 20.7503 39.5515 21.2718 39.1486 21.1022C39.4857 20.5171 40.3783 19.6563 39.6638 19.0394C39.2748 19.5313 38.9345 20.0454 38.4257 20.4206C37.8607 20.8382 37.1219 21.1414 36.5357 21.5463C35.8202 22.0392 34.2228 23.6833 33.5306 23.785C33.202 23.8327 33.0197 23.7225 32.7176 23.6419C32.6879 23.6048 33.3271 23.0738 33.4267 23.043C33.6165 22.9837 33.8157 23.0282 34.0065 22.9869C34.6192 22.8544 35.0337 22.2014 35.4948 21.7763C35.8245 21.4732 36.6311 21.081 36.6142 20.5891C36.6036 20.2892 36.3407 19.9415 36.0174 19.9871C35.2552 20.3051 33.8899 20.1853 33.2179 20.5308C32.8426 20.7238 31.5229 21.6152 31.171 21.8982C30.4301 22.495 30.0167 23.501 28.8252 23.4437C28.9641 22.9837 29.4506 21.8633 29.1506 21.453L28.9588 21.3555C28.5888 21.3492 28.5708 22.4314 27.8341 22.3752C27.4461 22.3466 27.8956 21.4944 27.1493 21.541C27.0772 21.5453 26.3299 21.7414 26.2897 21.7785C26.0989 21.9459 26.102 22.4187 25.925 22.6869C25.5847 23.201 22.0634 24.9871 21.3129 25.2987C18.8844 26.3078 16.6679 26.3237 14.0995 26.1032C12.5731 25.9718 11.9265 25.5319 11.9965 23.9218C12.0696 22.2279 13.4593 20.4068 14.3433 18.9652C14.9613 17.9593 16.1846 16.4212 16.6043 15.4312C16.6573 15.3061 16.7061 15.216 16.6785 15.0687C15.2189 16.8919 13.8027 18.7596 12.6293 20.7842C12.483 20.8022 12.5604 20.6188 12.5869 20.5436C13.2897 18.6176 15.1839 15.8944 16.5227 14.3172C16.9382 13.8274 17.7067 13.3006 17.9516 12.7282C18.0767 12.4367 18.083 12.1304 18.1838 11.8495C18.5802 10.7407 20.061 9.60865 20.7161 8.58681C20.961 8.25821 20.5688 8.13101 20.2879 8.31651C19.6201 9.01717 18.9268 9.88849 18.1891 10.5054C16.9626 11.5283 15.9196 12.2374 14.8129 13.4798C14.0836 14.2981 12.8339 16.3142 12.0198 16.8007C11.9466 16.8442 11.6509 17.0254 11.599 16.9735C11.5311 16.9078 11.794 16.559 11.8512 16.4732C12.995 14.7443 14.4144 13.6027 15.645 12.089C16.0902 11.5421 16.2079 10.922 16.6022 10.427C16.8428 10.1238 17.7767 9.33729 18.1148 9.08183C18.3905 8.87407 18.841 8.75005 19.0265 8.56349C19.2098 8.38011 19.3657 7.94764 19.5766 7.68476C20.1236 7.00318 20.9567 6.43714 21.5631 5.781C22.357 4.92347 23.0746 3.89209 23.8633 3.00064C24.4781 2.30528 25.2572 1.63324 25.8508 0.938944C26.0289 0.730125 26.4964 0.277506 26.2875 0.0220475C26.0819 -0.121052 25.253 0.473606 25.0569 0.622005C24.6519 0.928344 24.2544 1.40746 23.8622 1.7297C20.1734 4.75493 16.4358 7.7102 12.9855 11.0184C8.62139 15.2001 4.01458 21.0767 5.96076 27.5332L5.60248 27.0572C5.46998 27.0403 5.47528 27.0519 5.4827 27.177C5.52086 27.8692 6.21198 29.2959 6.75471 29.756L6.55649 28.7246C8.46239 31.6258 11.0456 32.9275 14.4303 33.395C16.1422 33.6313 17.9368 33.6727 19.6169 33.289C19.0805 32.8819 18.3004 33.2847 17.7491 32.8544C17.5923 32.6148 18.1488 32.5523 18.3078 32.5364C19.16 32.4516 19.8416 32.5703 20.7034 32.2321C20.8454 32.177 21.862 31.4859 21.4465 32.1018C21.1507 32.5406 20.3695 32.6296 20.4108 33.1692C21.5917 33.2042 22.8107 32.6296 23.8781 32.1516C25.0229 31.6396 26.1073 31.0047 27.2013 30.392C27.2998 30.3602 27.3592 30.4121 27.3179 30.5096C27.2309 30.711 26.1688 31.4583 25.9144 31.647C24.2968 32.8406 22.5923 33.926 20.9758 35.1238C19.1335 36.487 17.0135 38.5296 14.9857 39.4549C13.7868 40.003 12.4904 40.393 11.3361 41.0449C10.6778 41.417 10.0312 41.9353 9.3687 42.3328C8.06806 43.113 6.38689 43.9366 5.24525 44.8789C5.07777 45.0178 4.74599 45.4535 4.60819 45.5171C4.24778 45.6824 3.5291 45.0697 3.41886 46.0683C3.27151 47.3869 4.16086 47.2957 5.06611 47.759C5.13713 47.7961 5.19649 47.7399 5.16999 47.8968C5.09049 48.36 3.11887 49.1677 3.41992 49.5238C4.73539 49.7316 6.1134 49.6659 7.19037 48.8083C7.40238 48.6388 8.13378 47.7738 8.30445 47.7727C8.55461 47.7727 8.64789 48.3981 8.54295 48.573C8.37335 48.855 7.16281 48.7193 7.07271 49.2493C7.01547 49.5843 7.11935 49.7623 7.4734 49.6489C8.09456 49.4507 8.1041 48.4098 9.27224 49.1115C9.83298 49.4475 9.48212 49.5101 9.49378 49.9998C10.2973 49.7019 9.97926 49.3617 10.1065 48.7872C10.2305 48.2232 11.1697 48.1777 11.6255 47.9243C12.465 47.4569 13.561 46.3428 14.4313 45.728C16.6171 44.1836 19.0625 42.7759 21.1634 41.1075C21.6436 40.7259 22.0146 40.1736 22.4821 39.8058C23.3312 39.1359 24.4908 38.9249 25.0569 37.8544C25.4883 37.7462 25.8869 39.8577 25.9907 40.1736C26.3607 41.2887 27.1525 41.6788 27.9147 42.4579C28.2221 42.7717 28.4107 43.1734 28.7849 43.4925C30.1184 44.6288 32.2088 44.5694 33.3154 46.1085C34.4634 47.2597 35.8722 47.3021 37.3986 47.5035C37.6 47.0806 38.395 47.0922 38.554 46.7435C38.7395 46.3364 37.9689 45.6951 38.4681 45.1524C38.6027 45.0051 38.8084 44.8895 38.9324 45.0984C39.2165 45.5754 39.2695 46.152 39.7444 46.5071C40.0338 46.7233 41.1955 47.2003 41.0524 46.5527C40.9295 45.9941 39.773 45.6973 39.7115 45.5012C39.6363 44.8853 40.1016 44.5832 40.18 44.0469L38.4342 44.2048C38.254 44.0447 39.1985 43.6324 39.2674 43.4914C39.3384 43.3451 39.331 42.6879 39.3024 42.5035C39.2133 41.9343 38.1416 41.877 37.7198 41.5845C37.83 41.4075 38.1491 41.5665 38.3547 41.4668C38.7437 41.276 38.236 39.9489 38.0229 39.6542C37.8597 39.4274 37.689 39.2758 37.3774 39.3606C37.2957 39.3829 37.3021 39.5207 37.2438 39.5578C37.0085 39.7104 36.3905 39.4761 36.0905 39.4433C34.6786 39.2885 35.0422 39.2451 33.8825 38.713C33.5592 38.5646 31.9618 37.8915 31.7201 37.8575C31.6554 37.848 31.5908 37.8522 31.5272 37.8533L31.6056 38.8857C31.3607 39.1338 30.5965 38.2338 30.4534 38.1724C30.2085 38.0664 30.3421 38.7448 30.2552 38.8062C29.7718 38.7978 29.4941 38.3144 29.104 38.0939C28.9323 38.1024 28.8718 38.9737 28.9227 39.1475C29.0054 39.4274 30.2976 40.2054 30.4937 40.5944C30.5329 40.781 30.3325 40.7216 30.2234 40.7047C29.2566 40.552 28.6715 39.6182 27.991 39.0468C27.161 38.3515 26.1317 37.9031 25.2901 37.2184C25.1872 36.6046 25.9314 36.4244 26.3236 36.1054C26.5727 35.9029 27.1037 35.375 27.215 35.0909C27.3359 34.7857 27.3041 34.3553 27.4747 34.0808C27.6295 33.8317 28.1457 33.6101 28.3885 33.4066C28.716 33.131 29.4209 32.3413 29.5566 31.9523C29.5873 31.8654 29.6319 31.7467 29.5025 31.7424C29.3796 31.7424 28.0705 32.9805 27.832 33.1681C26.6426 34.0998 25.272 35.1885 24.0562 36.0608C23.8548 36.2061 23.5135 36.4965 23.2697 36.4647C25.3505 34.5334 27.6931 32.8363 29.582 30.71C30.0516 30.1821 30.4491 29.4793 30.9696 29.0013C31.8484 28.1957 32.973 27.989 33.7839 26.8929C33.9716 26.6407 34.2843 25.8308 34.4984 25.7026C34.8895 25.4662 35.5075 25.9718 36.2495 25.4683C36.6226 25.216 37.3848 24.5949 37.229 24.0956C37.0763 23.6048 35.3188 23.3314 34.8609 23.5624C34.916 23.4501 35.04 23.3218 35.1386 23.2466C35.6739 22.8363 38.484 21.9629 39.1889 21.8982C39.5462 21.8643 39.9405 21.9375 40.2924 21.8898C40.9634 21.7975 41.3217 21.1753 41.8538 20.8308C42.44 20.4524 43.4544 20.2245 43.8721 19.6744C43.9325 19.5949 44.0268 19.5737 43.9908 19.4359ZM9.36128 20.6517C9.20864 21.0365 9.05599 21.4202 8.93939 21.8177C8.80159 22.2851 8.83869 22.8957 8.50267 23.2466C8.25357 22.3085 8.52811 21.5071 8.88533 20.6517C9.24998 19.7761 9.81496 18.4448 10.7245 18.0865L9.36128 20.6517ZM26.8165 24.2122C26.0215 24.5493 25.2869 24.5376 24.5417 24.7963C23.9926 24.9871 23.5453 25.4609 22.9517 25.5478C23.063 25.3803 23.3078 25.2722 23.4838 25.1673C24.7834 24.3882 26.1497 23.5275 27.7154 23.4851C27.9602 23.7183 26.9469 24.1571 26.8165 24.2122Z" fill="#FF0000"/>
<path d="M20.7925 16.3635C21.8939 16.2617 23.6238 16.8246 24.421 17.6111C25.5244 18.6986 23.8708 20.7359 23.0737 21.5808C21.7243 23.0117 20.0654 24.2021 18.0323 23.3647C14.4982 21.9083 17.8023 16.6412 20.7925 16.3645V16.3635Z" fill="#FF0000"/>
<path d="M1.83676 49.8392C1.52512 49.199 2.24062 48.8026 2.54803 48.334C2.12402 48.3457 1.74772 48.4369 1.31417 48.4157C0.351683 48.368 -0.832349 47.6949 0.837169 47.6164C1.22301 47.5984 1.54102 47.6991 1.86962 47.7023C2.74307 47.7086 3.73948 47.4638 4.45181 48.0553C4.46771 48.2736 2.88087 49.1894 2.60103 49.3792C2.35192 49.5488 2.19186 49.8816 1.83676 49.8392Z" fill="#FF0000"/>
<path d="M31.886 20.2315C32.0132 20.2346 31.9718 20.3523 31.94 20.4413C31.6538 21.2427 31.0454 21.2448 30.5705 21.6942C30.3733 21.8808 30.0405 22.7574 29.6599 22.3748C29.4744 22.1882 29.5009 21.6317 29.6663 21.425C29.7447 21.3264 31.7598 20.2283 31.8849 20.2315H31.886Z" fill="#FF0000"/>
</g>
<defs>
<clipPath id="clip0_2436_206830">
<rect width="44" height="50" fill="white"/>
</clipPath>
</defs>
</svg>
